X:5
T:Shenmare
R:6/8 march
C:Chris Langan
B:Move Your Finger's, The Life and Music of Chris Langan
S:http://www.cranfordpub.com/books/chris_langan_book.htm
Q:244
L:1/8
M:6/8
K:G
g|GAB d2 e|dBA G2 B|GBd ged|e3 d2 g|
GAB d2 e|dBA G2 B|GBd g>BA|G3 G2:|
|:f|gfe d2 e|dBA G2 B|GBd ged|e3 d2 f|
[1gfe d2 e|dBA G2 B|GBd g>BA|G3 G2:|
[2gfe d2 g|Beg G2 d|GBd g>BA|G3 G2||
|:e|dBA G2 B|deg e2 g|GBd ged|e3 d2 B|
dBA G2 B|deg e2 g|GBd g>BA|G3 G2:|
|:f|gfg ege|dBA G2B|GBd ged|e3 d2 f|
[1gfg ege|dBA G2B|GBd g>BA|G3 G2:|
[2egd Bge|dBA G2 B|GBd g>BA|G3 G2||
